images/icons/currency.svg

<svg width="26" height="26" viewBox="0 0 26 26" fill="none" xmlns="http://www.w3.org/2000/svg">
<path d="M25 13C25 19.633 19.6321 25 13 25C6.367 25 1 19.6321 1 13C1 6.367 6.36792 1 13 1C19.633 1 25 6.36792 25 13ZM23.125 13C23.125 7.40338 18.5959 2.875 13 2.875C7.40338 2.875 2.875 7.40411 2.875 13C2.875 18.5966 7.40411 23.125 13 23.125C18.5966 23.125 23.125 18.5959 23.125 13Z" fill="#212121"/>
<path d="M7.8187 17.0907H9.72783V18.7273C9.72783 18.8069 9.7533 18.8721 9.80456 18.9231C9.85568 18.9744 9.92102 19 10.0006 19H11.4238C11.4977 19 11.5616 18.9744 11.6156 18.9231C11.6696 18.8721 11.6965 18.8069 11.6965 18.7273V17.0907H16.0005C16.0799 17.0907 16.1453 17.0654 16.1965 17.0141C16.2478 16.9629 16.2733 16.8977 16.2733 16.818V15.7271C16.2733 15.6479 16.2478 15.5823 16.1965 15.5313C16.1454 15.4801 16.0799 15.4544 16.0005 15.4544H11.6964V14.4487H14.5941C15.7304 14.4487 16.6578 14.1024 17.3768 13.409C18.0954 12.7162 18.4549 11.8214 18.4549 10.7243C18.4549 9.62805 18.0954 8.73317 17.3768 8.03972C16.658 7.34695 15.7304 7 14.5941 7H10.0005C9.92086 7 9.85565 7.02562 9.80442 7.07659C9.7533 7.12785 9.72768 7.19348 9.72768 7.27266V12.6336H7.8187C7.7391 12.6336 7.67387 12.6605 7.62263 12.7145C7.57154 12.7685 7.5459 12.8324 7.5459 12.9062V14.176C7.5459 14.2556 7.57137 14.3208 7.62263 14.3721C7.67389 14.4234 7.73896 14.4487 7.8187 14.4487H9.72783V15.4544H7.8187C7.7391 15.4544 7.67387 15.48 7.62263 15.5313C7.57154 15.5823 7.5459 15.6478 7.5459 15.7271V16.818C7.5459 16.8977 7.57137 16.9629 7.62263 17.0141C7.67387 17.0654 7.73907 17.0907 7.8187 17.0907ZM11.6964 8.81552H14.4236C15.0258 8.81552 15.5116 8.9916 15.881 9.34386C16.2502 9.69615 16.435 10.1565 16.435 10.7245C16.435 11.2927 16.2502 11.7532 15.881 12.1051C15.5116 12.4577 15.0258 12.6337 14.4236 12.6337H11.6964V8.81552Z" fill="black"/>
</svg>

<svg width="26" height="26" fill="none" xmlns="http://www.w3.org/2000/svg"><path d="M25 13c0 6.633-5.368 12-12 12-6.633 0-12-5.368-12-12C1 6.367 6.368 1 13 1c6.633 0 12 5.368 12 12zm-1.875 0A10.12 10.12 0 0013 2.875 10.12 10.12 0 002.875 13 10.12 10.12 0 0013 23.125 10.12 10.12 0 0023.125 13z" fill="#212121"/><path d="M7.819 17.09h1.909v1.637A.264.264 0 0010 19h1.423a.269.269 0 00.273-.273v-1.636H16a.27.27 0 00.197-.077.265.265 0 00.076-.196v-1.09a.265.265 0 00-.076-.197.265.265 0 00-.197-.077h-4.304V14.45h2.898c1.136 0 2.064-.347 2.783-1.04.718-.693 1.078-1.588 1.078-2.685 0-1.096-.36-1.99-1.078-2.684C16.658 7.347 15.73 7 14.594 7h-4.593a.266.266 0 00-.197.077.266.266 0 00-.076.196v5.36h-1.91a.27.27 0 00-.273.273v1.27a.265.265 0 00.273.273h1.91v1.005h-1.91a.265.265 0 00-.195.077.265.265 0 00-.077.196v1.091c0 .08.025.145.077.196a.265.265 0 00.196.077zm3.877-8.274h2.728c.602 0 1.088.176 1.457.528.37.352.554.813.554 1.38 0 .569-.185 1.03-.554 1.381-.37.353-.855.529-1.457.529h-2.728V8.816z" fill="#000"/></svg>
